/* XPM */
static char *_ec540157b094e40af326f6168e56796VorWyHDncqnjsDMg[] = {
/* columns rows colors chars-per-pixel */
"64 64 37 1 ",
"  c #6B9DE1",
". c #70A5E3",
"X c #73A9E4",
"o c #75ABE5",
"O c #77AFE6",
"+ c #7AB2E7",
"@ c #7BB3E8",
"# c #7BB4E8",
"$ c #7CB6E8",
"% c #7EB8E9",
"& c #80BBEA",
"* c #83BEEB",
"= c #84C0EC",
"- c #87C4ED",
"; c #89C7EE",
": c #8BCAEF",
"> c #8CCBEF",
", c #8CCBF0",
"< c #8DCCF0",
"1 c #8FD0F1",
"2 c #92D3F2",
"3 c #93D5F3",
"4 c #94D6F3",
"5 c #94D6F4",
"6 c #96D8F4",
"7 c #98DBF6",
"8 c #9ADFF7",
"9 c #9BE0F7",
"0 c #9CE1F8",
"q c #9EE4F9",
"w c #A0E7FA",
"e c #A1E8FB",
"r c #A3EBFC",
"t c #A4EBFC",
"y c #A6EFFD",
"u c #A7F0FE",
"i c #A9F3FF",
/* pixels */
"iiiiiiiiiiiiiiiiiiiiiiiiiiiiiiiiiiiiiiiiiiiiiiiiiiiiiiiiiiiiiiii",
"iiiiiiiiiiiiiiiiiiiiiiiiiiiiiiiiiiiiiiiiiiiiiiiiiiiiiiiiiiiiiiii",
"iiiiiiiiiiiiiiiiiiiiiiiiiiiiiiiiiiiiiiiiiiiiiiiiiiiiiiiiiiiiiiii",
"iiiiiiiiiiiiiiiiiiiiiiiiiiiiiiiiiiiiiiiiiiiiiiiiiiiiiiiiiiiiiiii",
"iiiiiiiiiiiiiiiiiiiiiiiiiiiiiiiiiiiiiiiiiiiiiiiiiiiiiiiiiiiiiiii",
"iiiiiiiiiiiiiiiiiiiiiiiiiiiiiiiiiiiiiiiiiiiiiiiiiiiiiiiiiiiiiiii",
"iiiiiiiiiiiiiiiiiiiiiiiiiiiiiiiiiiiiiiiiiiiiiiiiiiiiiiiiiiiiiiii",
"iiiiiiiiiiiiiiiiiiiiiiiiiiiiiiiiiiiiiiiiiiiiiiiiiiiiiiiiiiiiiiii",
"iiiiiiiiiiiiiiiiiiiiiiiiiiiiiiiiiiiiiiiiiiiiiiiiiiiiiiiiiiiiiiii",
"iiiiiiiiiiiiiiiiiiiiiiiiiiiiiiiiiiiiiiiiiiiiiiiiiiiiiiiiiiiiiiii",
"iiiiiiiiiiiiiiiiiiiiiiiiiiiiiiiiiiiiiiiiiiiiiiiiiiiiiiiiiiiiiiii",
"iiiiiiiiiiiiiiieiiiiiy5iiiiiiiiiiiiiiiiiiiiiiiiiiiiiiiiiiiiiiiii",
"iiiiiiiiiiiiii0=28uiu,=2yiiiiiiiiiiiiiiiiiiiiiiiiiiiiiiiiiiiiiii",
"iiiiiiiiiiiiii:<22<83:0<2725:iiiiiiiiiiiiiiiiiiiiiiiiiiiiiiiiiii",
"iiiiiiiiiiiiii*it6<%3riy2%<2Oiiiiiiiiiiiiiiiiiiiiiiiiiiiiiiiiiii",
"iiiiiiiiiuw00q$i32q%w0rwr+60=iiiiiiiiiiiiiiiiiiiiiiiiiiiiiiiiiii",
"iiiiiiiii5=153*4$<:;3:82wO-6oqiiiiiiiiiiiiiiiiiiiiiiiiiiiiiiiiii",
"iiiiiiiii%=qeq6<=&O=<:2:e *3*:8iiiiiiiiiiiiiiiiiiiiiiiiiiiiiiiii",
"iiiiiiiii%6iyy8<3=+@3<256 ;4w6-7iiiiiiiiiiiiiiiiiiiiiiiiiiiiiiii",
"iiiiiiiii-2iy02$;<;&8<59%*24yi5#iiiiiiiiiiiiiiiiiiiiiiiiiiiiiiii",
"iiiiiiiii8+yi6<==;33<<2:$<13ei5=iiiiiiiiiiiiiiiiiiiiiiiiiiiiiiii",
"iiiiiiiii0O206213233.<8X><<8e6*qiiiiiiiiiiiiiiiiiiiiiiiiiiiiiiii",
"iiiiiiiiq;7;-<*=<:==+<8.*==:2+6iiiiiiiiiiiiiiiiiiiiiiiiiiiiiiiii",
"iiiiiiii*2u6:+=:**&;=5<$$O=:6%qiiiiiiiiiiiiiiiiiiiiiiiiiiiiiiiii",
"iiiiiiiiO506:<96<-*2$92-5o<ei8-iiiiiiiiiiiiiiiiiiiiiiiiiiiiiiiii",
"iiiiiiii6121+yy<2;<<X7<=4$6iirOiiiiiiiiiiiiiiiiiiiiiiiiiiiiiiiii",
"iiiiiiiiir88Xyi8963+&4::<=;67<-iiiiiiiiiiiiiiiiiiiiiiiiiiiiiiiii",
"iiiiiiiiiiii*6iuy2-$<-5267X<52eiiiiiiiiiiiiiiiiiiiiiiiiiiiiiiiii",
"iiiiiiiiiiii9+y9:O389*8qei$eyiiiiiiiiiiiiiiiiiiiiiiiiiiiiiiiiiii",
"iiiiiiiiiiiiu$===:2uy5$wii$iiiiiiiiiiiiiiiiiiiiiiiiiiiiiiiiiiiii",
"iiiiiiiiiiiii0-5ty;58;+<68Xiiiiiiiiiiiiiiiiiiiiiiiiiiiiiiiiiiiii",
"iiiiiiiiiiiiiiuiiiq;$-963;%iiiiiiiiiiiiiiiiiiiiiiiiiiiiiiiiiiiii",
"iiiiiiiiiiiiiiiiiiiq1yiiy00iiiiiiiieiiiiiy5iiiiiiiiiiiiiiiiiiiii",
"iiiiiiiiiiiiiiiiiiiiiiiiiiiiiiiiii0=28uiu,=2yiiiiiiiiiiiiiiiiiii",
"iiiiiiiiiiiiiiiiiiiiiiiiiiiiiiiiii:<22<83:0<2725:iiiiiiiiiiiiiii",
"iiiiiiiiiiiiiiiiiiiiiiiiiiiiiiiiii*it6<%3riy2%<2Oiiiiiiiiiiiiiii",
"iiiiiiiiiiiiiiiiiiiiiiiiiiiiiuw00q$i32q%w0rwr+60=iiiiiiiiiiiiiii",
"iiiiiiiiiiiiiiiiiiiiiiiiiiiii5=153*4$<:;3:82wO-6oqiiiiiiiiiiiiii",
"iiiiiiiiiiiiiiiiiiiiiiiiiiiii%=qeq6<=&O=<:2:e *3*:8iiiiiiiiiiiii",
"iiiiiiiiiiiiiiiiiiiiiiiiiiiii%6iyy8<3=+@3<256 ;4w6-7iiiiiiiiiiii",
"iiiiiiiiiiiiiiiiiiiiiiiiiiiii-2iy02$;<;&8<59%*24yi5#iiiiiiiiiiii",
"iiiiiiiiiiiiiiiiiiiiiiiiiiiii8+yi6<==;33<<2:$<13ei5=iiiiiiiiiiii",
"iiiiiiiiiiiiiiiiiiiiiiiiiiiii0O206213233.<8X><<8e6*qiiiiiiiiiiii",
"iiiiiiiiiiiiiiiiiiiiiiiiiiiiq;7;-<*=<:==+<8.*==:2+6iiiiiiiiiiiii",
"iiiiiiiiiiiiiiiiiiiiiiiiiiii*2u6:+=:**&;=5<$$O=:6%qiiiiiiiiiiiii",
"iiiiiiiiiiiiiiiiiiiiiiiiiiiiO506:<96<-*2$92-5o<ei8-iiiiiiiiiiiii",
"iiiiiiiiiiiiiiiiiiiiiiiiiiii6121+yy<2;<<X7<=4$6iirOiiiiiiiiiiiii",
"iiiiiiiiiiiiiiiiiiiiiiiiiiiiir88Xyi8963+&4::<=;67<-iiiiiiiiiiiii",
"iiiiiiiiiiiiiiiiiiiiiiiiiiiiiiii*6iuy2-$<-5267X<52eiiiiiiiiiiiii",
"iiiiiiiiiiiiiiiiiiiiiiiiiiiiiiii9+y9:O389*8qei$eyiiiiiiiiiiiiiii",
"iiiiiiiiiiiiiiiiiiiiiiiiiiiiiiiiu$===:2uy5$wii$iiiiiiiiiiiiiiiii",
"iiiiiiiiiiiiiiiiiiiiiiiiiiiiiiiii0-5ty;58;+<68Xiiiiiiiiiiiiiiiii",
"iiiiiiiiiiiiiiiiiiiiiiiiiiiiiiiiiiuiiiq;$-963;%iiiiiiiiiiiiiiiii",
"iiiiiiiiiiiiiiiiiiiiiiiiiiiiiiiiiiiiiiiq1yiiy00iiiiiiiiiiiiiiiii",
"iiiiiiiiiiiiiiiiiiiiiiiiiiiiiiiiiiiiiiiiiiiiiiiiiiiiiiiiiiiiiiii",
"iiiiiiiiiiiiiiiiiiiiiiiiiiiiiiiiiiiiiiiiiiiiiiiiiiiiiiiiiiiiiiii",
"iiiiiiiiiiiiiiiiiiiiiiiiiiiiiiiiiiiiiiiiiiiiiiiiiiiiiiiiiiiiiiii",
"iiiiiiiiiiiiiiiiiiiiiiiiiiiiiiiiiiiiiiiiiiiiiiiiiiiiiiiiiiiiiiii",
"iiiiiiiiiiiiiiiiiiiiiiiiiiiiiiiiiiiiiiiiiiiiiiiiiiiiiiiiiiiiiiii",
"iiiiiiiiiiiiiiiiiiiiiiiiiiiiiiiiiiiiiiiiiiiiiiiiiiiiiiiiiiiiiiii",
"iiiiiiiiiiiiiiiiiiiiiiiiiiiiiiiiiiiiiiiiiiiiiiiiiiiiiiiiiiiiiiii",
"iiiiiiiiiiiiiiiiiiiiiiiiiiiiiiiiiiiiiiiiiiiiiiiiiiiiiiiiiiiiiiii",
"iiiiiiiiiiiiiiiiiiiiiiiiiiiiiiiiiiiiiiiiiiiiiiiiiiiiiiiiiiiiiiii",
"iiiiiiiiiiiiiiiiiiiiiiiiiiiiiiiiiiiiiiiiiiiiiiiiiiiiiiiiiiiiiiii"
};
