/* XPM */
static char *_43c2649ba5c4065afdf3bf2015d8c0ahMDH4CnOGF25Omxj[] = {
/* columns rows colors chars-per-pixel */
"64 64 12 1 ",
"  c #FDA3F6",
". c #FDA4F6",
"X c #FDAAF7",
"o c #FDACF7",
"O c #FCAEF8",
"+ c #FCB2F8",
"@ c #FCB6F9",
"# c #FBBBF9",
"$ c #FCB8F9",
"% c #FBC2FB",
"& c #FACCFD",
"* c #F9D9FF",
/* pixels */
"****************************************************************",
"****************************************************************",
"****************************************************************",
"**********************************************************%$****",
"*******************************************%#OO+XXooooO++##@****",
"***************************************&@X....XXXoooOO+$###@****",
"*************************************#X ....XXXXoooO+$####$#****",
"***********************************%.  ....XXXoooOO@#####$$*****",
"**********************************o  ....XXXXoooO+$%####$$@*****",
"********************************&X  ....XXXoooO++#%####$$@@*****",
"********************************X ....XXXXoooO+$%%####$$@@#*****",
"*******************************+ ....XXXoooOO+#%%####$$@@@******",
"******************************%....XXXXoooO+@#%%####$$@@@+******",
"******************************O...XXXoooOO+@#%%####$$@@++@******",
"******************************..XXXXoooO++@%%####$$@@@+++&******",
"******X+%********************#.XXXoooOO++@%%####$$@@@++++*******",
"******o..o@******************+XXXoooO+++$%%####$$@@@+++O@*******",
"******O....o&****************+XoooOO+++$%%####$$@@@+++Oo%*******",
"******@......#***************+oooO++++$%%####$$@@@+++OoO********",
"******#.......#**************+oOO++++@#%####$$@@@+++ooX@********",
"*******........#*************+O+++@@@#%####$$@@@++OooXX*********",
"*******X........%************@++++@@#%####$$@@@++OooXX+*********",
"*******+........X************#++@@@$%####$$@@@++OooXXX&*********",
"*******@.........@************+@@@$#####$$@@+++OooXX.+**********",
"*******%.........X************@@@$####$$@@@+++OooXX..&**********",
"********..........@***********$@$####$$$@@+++OooXX..@***********",
"********+.........o***********&$$###$$@@@+++OooXX..X************",
"********#..........&***********@###$$@@@+++OooXX...&************",
"********&..........#*********&oo##$$@@@+++OooXX...#*************",
"*********o.........O********#...+$$@@@+++ooXXX.. #**************",
"*********#.........o*******O.....o@@@++OooXXX.. #***************",
"**********X.........*****&O......O&@++OooXXX...%****************",
"**********@.........****&X......+***&@+oXXX.o@******************",
"***********X........****o......X...X+&*&###&********************",
"***********@........#**+..............#*************************",
"************+.......#*+......o.........+************************",
"************&X......##......#o..........@***********************",
"*************&X.....&......#*............%**********************",
"***************+....o.....@**............X**********************",
"*****************##+.....+***.............@*********************",
"******************&X....X****O............X*********************",
"******************+.....&****@.............@********************",
"*****************&.....@*****&.............X********************",
"*****************+....X*******+.............%*******************",
"****************&.....#*******&X............O*******************",
"****************@....o*********#.............*******************",
"****************X....@**********#............%******************",
"***************%.....************#...........+******************",
"***************+....+*************&X.........o******************",
"***************X....#***************+.........******************",
"**************&.....*****************&o.......#*****************",
"**************#....o*******************%O.....+*****************",
"**************O....O*********************&@X..O*****************",
"**************X....#************************%+o*****************",
"**************.....#********************************************",
"*************#.....#********************************************",
"*************#.....&********************************************",
"*************+.....*********************************************",
"*************+.....*********************************************",
"*************O.....&********************************************",
"*************X.....#********************************************",
"*************......#********************************************",
"*************......#********************************************",
"*************......+********************************************"
};
