/* XPM */
static char *_90eb04c4ef8411cc8060a8e39f4b0d2mpPwvdAdQWQ7nr8v[] = {
/* columns rows colors chars-per-pixel */
"64 64 103 2 ",
"   c #358D2C",
".  c #388E30",
"X  c #3A8E33",
"o  c #3D8F36",
"O  c #3F9039",
"+  c #42903C",
"@  c #44913E",
"#  c #469241",
"$  c #489343",
"%  c #4A9345",
"&  c #4C9448",
"*  c #50954C",
"=  c #54964F",
"-  c #569751",
";  c #579853",
":  c #599855",
">  c #5C9A58",
",  c #619B5D",
"<  c #629C5F",
"1  c #639D60",
"2  c #669E63",
"3  c #689E65",
"4  c #6DA16A",
"5  c #72A36F",
"6  c #73A470",
"7  c #75A573",
"8  c #78A675",
"9  c #7AA778",
"0  c #7BA879",
"q  c #7CA87A",
"w  c #7EA97C",
"e  c #80AB7E",
"r  c #82AC80",
"t  c #85AD83",
"y  c #87AE85",
"u  c #88AF86",
"i  c #8AB088",
"p  c #8DB18B",
"a  c #8EB28C",
"s  c #90B38E",
"d  c #91B490",
"f  c #94B692",
"g  c #96B794",
"h  c #97B896",
"j  c #98B897",
"k  c #99B998",
"l  c #9CBA9B",
"z  c #9DBB9C",
"x  c #9FBC9D",
"c  c #A0BD9F",
"v  c #A3BEA1",
"b  c #A4BFA3",
"n  c #A6C0A4",
"m  c #A9C2A7",
"M  c #AAC3A9",
"N  c #ABC4AA",
"B  c #ACC4AB",
"V  c #AEC6AD",
"C  c #B0C7AF",
"Z  c #B3C9B2",
"A  c #B4C9B3",
"S  c #B4CAB4",
"D  c #B8CCB7",
"F  c #BBCEBA",
"G  c #BCCEBB",
"H  c #BFD1BE",
"J  c #C0D1BF",
"K  c #C1D2C0",
"L  c #C4D4C4",
"P  c #C6D6C5",
"I  c #C8D7C7",
"U  c #C8D7C8",
"Y  c #CBD9CB",
"T  c #CCDACB",
"R  c #CCDACC",
"E  c #CFDCCE",
"W  c #D0DCCF",
"Q  c #D1DDD0",
"!  c #D4DFD3",
"~  c #D5E0D4",
"^  c #D8E2D7",
"/  c #D9E3D9",
"(  c #DBE4DA",
")  c #DCE5DB",
"_  c #DDE6DD",
"`  c #DFE7DE",
"'  c #E0E8DF",
"]  c #E0E8E0",
"[  c #E5EBE4",
"{  c #E6ECE6",
"}  c #E8EDE7",
"|  c #EAEFEA",
" . c #EAF0EA",
".. c #ECF1EC",
"X. c #EDF2ED",
"o. c #F0F3EF",
"O. c #F0F4F0",
"+. c #F4F6F4",
"@. c #F5F7F4",
"#. c #F5F8F5",
"$. c #F8FAF8",
"%. c #FBFCFB",
"&. c white",
/* pixels */
"&.&.&.&.&.&.&.&.&.&.&.&.&.&.&.&.&.&.&.&.&.&.&.&.&.&.&.&.&.&.&.&.&.&.&.&.&.&.&.&.&.&.&.&.&.&.&.&.&.&.&.&.&.&.&.&.&.&.&.&.&.&.&.&.",
"&.&.&.&.&.&.&.&.&.&.&.&.&.&.&.&.&.&.&.&.&.&.&.&.&.&.&.&.&.&.&.&.&.&.&.&.&.&.&.&.&.&.&.&.&.&.&.&.&.&.&.&.&.&.&.&.&.&.&.&.&.&.&.&.",
"&.&.&.&.&.&.&.&.&.&.&.&.&.&.&.&.&.&.&.&.&.&.&.&.&.&.&.&.&.&.&.&.&.&.&.&.&.&.&.&.&.&.&.&.&.&.&.&.&.&.&.&.&.&.&.&.&.&.&.&.&.&.&.&.",
"&.&.&.&.&.&.&.&.&.&.&.&.&.&.&.&.&.&.&.&.&.&.&.&.&.&.&.&.&.&.&.&.&.&.&.&.&.&.&.&.&.&.&.&.&.&.&.&.&.&.&.&.&.&.&.&.&.&.&.&.&.&.&.&.",
"&.&.&.&.&.&.&.&.&.&.&.&.&.&.&.&.&.&.&.&.&.&.&.&.&.&.&.&.&.&.&.&.&.&.&.&.&.&.&.&.&.&.&.&.&.&.&.&.&.&.&.&.&.&.&.&.&.&.&.&.&.&.&.&.",
"&.&.&.&.&.&.&.&.&.&.&.&.&.&.&.&.&.&.&.&.&.&.&.&.&.&.&.&.&.&.&.&.&.&.&.&.&.&.&.&.&.&.&.&.&.&.&.&.&.&.&.&.&.&.&.&.&.&.&.&.&.&.&.&.",
"&.&.&.&.&.&.&.&.&.&.&.&.&.&.&.&.&.&.&.&.&.&.&.&.&.&.&.&.&.&.&.&.&.&.&.&.&.&.&.&.&.&.&.$.~ P K U X.&.&.&.&.&.&.&.&.&.&.&.&.&.&.&.",
"&.&.&.&.&.&.&.&.&.&.&.&.&.&.&.&.&.&.&.&.&.&.&.&.&.&.&.&.&.&.&.&.&.&.&.&.&.&.&.&.&.$.R r % X X X 3 v ( $.&.&.&.&.&.&.&.&.&.&.&.&.",
"&.&.&.&.&.&.&.&.&.&.&.&.&.&.&.&.&.&.&.&.&.&.&.&.&.&.&.&.&.&.&.&.&.&.&.&.&.&.&.&.+.V o X X X     ; : % v +.&.&.&.&.&.&.&.&.&.&.&.",
"&.&.&.&.&.&.&.&.&.&.&.&.&.&.&.&.&.&.&.&.&.&.&.&.&.&.&.&.&.&.&.&.&.&.&.&.&.&.&.X.r X           #  .+.p   a +.&.&.&.&.&.&.&.&.&.&.",
"&.&.&.&.&.&.&.&.&.&.&.&.&.&.&.&.&.&.&.&.&.&.&.&.&.&.&.&.&.&.&.&.&.&.&.&.&.&.#.g X     X       + Y Q 8   o > 2 z Z E ) X.&.&.&.&.",
"&.&.&.&.&.&.&.&.&.&.&.&.&.&.&.&.&.&.&.&.&.&.&.&.&.&.&.&.&.&.&.&.&.&.&.&.&.&.S o X X X X X X     X X X X X X X X X X + u ~ &.&.&.",
"&.&.&.&.&.&.&.&.&.&.&.&.&.&.&.&.&.&.&.&.&.&.&.&.&.&.&.&.&.&.&.&.&.&.&.&.&.~ X   X X X X X X X   X X     X X X X X - Z _ +.&.&.&.",
"&.&.&.&.&.&.&.&.&.&.&.&.&.&.&.&.&.&.&.&.&.&.&.&.&.&.&.&.&.&.&.&.&.&.&.&.X.8 X   X X X X X X X X X X X   X a B Y ] +.O.&.&.&.&.&.",
"&.&.&.&.&.&.&.&.&.&.&.&.&.&.&.&.&.&.&.&.&.&.&.&.&.&.&.&.&.&.&.&.&.&.&.&.Z X     . X X X X X X X X X X + V X.&.$.$.&.&.&.&.&.&.&.",
"&.&.&.&.&.&.&.&.&.&.&.&.&.&.&.&.&.&.&.&.&.&.&.&.&.&.&.&.&.&.&.&.&.&.%.] - X       X X X X X X X X X   k O.&.&.&.&.&.&.&.&.&.&.&.",
"&.&.&.&.&.&.&.&.&.&.&.&.&.&.&.&.&.&.&.&.&.&.&.&.&.&.&.&.&.&.%.( H k <                               7 | &.&.&.&.&.&.&.&.&.&.&.&.",
"&.&.&.&.&.&.&.&.&.&.&.&.&.&.&.&.&.&.&.&.&.&.&.&.&.&.&.&.$.P c C ! | O.| F r                       & P &.&.&.&.&.&.&.&.&.&.&.&.&.",
"&.&.&.&.&.&.&.&.&.&.&.&.&.&.&.&.&.&.&.&.&.&.&.&.&.&.&._ c R ] | F d k d P ( v X                   w X.&.&.&.&.&.&.&.&.&.&.&.&.&.",
"&.&.&.&.&.&.&.&.&.&.&.&.&.&.&.&.&.&.&.&.&.&.&.&.&.&.S S | | Z -           d | 8                   F &.&.&.&.&.&.&.&.&.&.&.&.&.&.",
"&.&.&.&.&.&.&.&.&.&.&.&.&.&.&.&.&.&.&.&.&.&.&.&.+.v T X.W & X             O I K                   Q &.&.&.&.&.&.&.&.&.&.&.&.&.&.",
"&.&.&.&.&.&.&.&.&.&.&.&.&.&.&.&.&.&.&.&.&.&.&.+.Z R X.M *                   M ] 1                 ] &.&.&.&.&.&.&.&.&.&.&.&.&.&.",
"&.&.&.&.&.&.&.&.&.&.&.&.&.&.&.&.&.&.&.&.&.&.&.z P +.d O                     c ] 1                 X.&.&.&.&.&.&.&.&.&.&.&.&.&.&.",
"&.&.&.&.&.&.&.&.&.&.&.&.&.&.&.&.&.&.&.&.&.&.m Y +.a                       X F ] :                 X.&.&.&.&.&.&.&.&.&.&.&.&.&.&.",
"&.&.&.&.&.&.&.&.&.&.&.&.&.&.&.&.&.&.&.&.&.U S X.v o X X X       X X X X X - [ W X X X X X X     - O.&.&.&.&.&.&.&.&.&.&.&.&.&.&.",
"&.&.&.&.&.&.&.&.&.&.&.&.&.&.&.&.&.&.&.&.] d | D # X X X X       X X X X X p O.f   . X X X X     w #.&.&.&.&.&.&.&.&.&.&.&.&.&.&.",
"&.&.&.&.&.&.&.&.&.&.&.&.&.&.&.&.&.&.&.$.x _ ) % X X X X X X   X X X     2 ~ ) %     X X X X     a $.&.&.&.&.&.&.&.&.&.&.&.&.&.&.",
"&.&.&.&.&.&.&.&.&.&.&.&.&.&.&.&.&.&.&.G G | 4 X X X X X X X X X X     4 Y ! >   X   X X X X X X v &.&.&.&.&.&.&.&.&.&.&.&.&.&.&.",
"&.&.&.&.&.&.&.&.&.&.&.&.&.&.&.&.&.&.X.k  .m X X X X X X X X X X X X X f #.J     X X X X X X X O ! &.&.&.&.&.&.&.&.&.&.&.&.&.&.&.",
"&.&.&.&.&.&.&.&.&.&.&.&.&.&.&.&.&.&.n Q _ * X X X X X X X X X X X X X : +.W X   X X X X X X X # | &.&.&.&.&.&.&.&.&.&.&.&.&.&.&.",
"&.&.&.&.&.&.&.&.&.&.&.&.&.&.&.&.&._ z O.7   . . X X X X     X . X X X X O.~     X X X X X X X k %.&.&.&.&.&.&.&.&.&.&.&.&.&.&.&.",
"&.&.&.&.&.&.&.&.&.&.&.&.&.&.&.&.&.v Q R +   X   X X X X X     X X X X X O.~ . .   X X X X X # J &.&.&.&.&.&.&.&.&.&.&.&.&.&.&.&.",
"&.&.&.&.&.&.&.&.&.&.&.&.&.&.&.&.( c X.5 X X         X X X X X X X . . + O.P X X X X       X 7 X.&.&.&.&.&.&.&.&.&.&.&.&.&.&.&.&.",
"&.&.&.&.&.&.&.&.&.&.&.&.&.&.&.&.k / P X X X   X     X X X X X X X X   a $.m X X X X     X X K %.&.&.&.&.&.&.&.&.&.&.&.&.&.&.&.&.",
"&.&.&.&.&.&.&.&.&.&.&.&.&.&.&.] k | e X X X X X X X X X X X     X X X N O.y     X X X   X w | &.&.&.&.&.&.&.&.&.&.&.&.&.&.&.&.&.",
"&.&.&.&.&.&.&.&.&.&.&.&.&.&.&.N ^ Q O X X X X X X X X X X X X   X X * _ / #   X X X X X O Q &.&.&.&.&.&.&.&.&.&.&.&.&.&.&.&.&.&.",
"&.&.&.&.&.&.&.&.&.&.&.&.&.&.| t X.y X X X X X X X X X X X X X   X X M #.s X X X X X X X k O.&.&.&.&.&.&.&.&.&.&.&.&.&.&.&.&.&.&.",
"&.&.&.&.&.&.&.&.&.&.&.&.&.&.G G ~ & X X X X X X X X X X X X . . X w { / & X X X X X X 7 _ &.&.&.&.&.&.&.&.&.&.&.&.&.&.&.&.&.&.&.",
"&.&.&.&.&.&.&.&.&.&.&.&.&.$.j { n X         X X .     X X X X . , ( X.5 X X X X X X : W $.&.&.&.&.&.&.&.&.&.&.&.&.&.&.&.&.&.&.&.",
"&.&.&.&.&.&.&.&.&.&.&.&.&.~ b O.= X X       X X X     X X X X & ~ +.V X X X X X X O G +.&.&.&.&.&.&.&.&.&.&.&.&.&.&.&.&.&.&.&.&.",
"&.&.&.&.&.&.&.&.&.&.&.&.&.n Q Y X X X X X X X X X X X X X X < ~ O.C     X X X X o n +.&.&.&.&.&.&.&.&.&.&.&.&.&.&.&.&.&.&.&.&.&.",
"&.&.&.&.&.&.&.&.&.&.&.&.$.u X.l X X X X X X X X X X X X X 7 ~ O.V O   X X X X + v X.&.&.&.&.&.&.&.&.&.&.&.&.&.&.&.&.&.&.&.&.&.&.",
"&.&.&.&.&.&.&.&.&.&.&.&.Q v ] * X X X X X       X X X O t ] X.S X X X X X X o v X.&.&.&.&.&.&.&.&.&.&.&.&.&.&.&.&.&.&.&.&.&.&.&.",
"&.&.&.&.&.&.&.&.&.&.&.&.v ] P                       % S |  .j             o c O.&.&.&.&.&.&.&.&.&.&.&.&.&.&.&.&.&.&.&.&.&.&.&.&.",
"&.&.&.&.&.&.&.&.&.&.&.X.e +.a                   o u ( o._ , X           = F +.&.&.&.&.&.&.&.&.&.&.&.&.&.&.&.&.&.&.&.&.&.&.&.&.&.",
"&.&.&.&.&.&.&.&.&.&.&._ M  .2                 4 F  . .M -           X 2 Y O.&.&.&.&.&.&.&.&.&.&.&.&.&.&.&.&.&.&.&.&.&.&.&.&.&.&.",
"&.&.&.&.&.&.&.&.&.&.&.V T E o           X & V ] O.Q 9             X 4 ( +.&.&.&.&.&.&.&.&.&.&.&.&.&.&.&.&.&.&.&.&.&.&.&.&.&.&.&.",
"&.&.&.&.&.&.&.&.&.&.$.l o.n           > Z { O.~ s               % B  .&.&.&.&.&.&.&.&.&.&.&.&.&.&.&.&.&.&.&.&.&.&.&.&.&.&.&.&.&.",
"&.&.&.&.&.&.&.&.&.&._ b #.%       q B { X._ c &               6 W X.&.&.&.&.&.&.&.&.&.&.&.&.&.&.&.&.&.&.&.&.&.&.&.&.&.&.&.&.&.&.",
"&.&.&.&.&.&.&.&.&.&.I P X.  & 0 T ] o.~ h *               * M ' $.&.&.&.&.&.&.&.&.&.&.&.&.&.&.&.&.&.&.&.&.&.&.&.&.&.&.&.&.&.&.&.",
"&.&.&.&.&.&.&.&.&.&.k ( Q S Q +.| H i                   r ! O.&.&.&.&.&.&.&.&.&.&.&.&.&.&.&.&.&.&.&.&.&.&.&.&.&.&.&.&.&.&.&.&.&.",
"&.&.&.&.&.&.&.&.&.&.p O.O.{ Q n ; X                 8 J  .$.&.&.&.&.&.&.&.&.&.&.&.&.&.&.&.&.&.&.&.&.&.&.&.&.&.&.&.&.&.&.&.&.&.&.",
"&.&.&.&.&.&.&.&.&.} p / m w @                 o 4 A { $.&.&.&.&.&.&.&.&.&.&.&.&.&.&.&.&.&.&.&.&.&.&.&.&.&.&.&.&.&.&.&.&.&.&.&.&.",
"&.&.&.&.&.&.&.&.&.Y o                       = F ] #.&.&.&.&.&.&.&.&.&.&.&.&.&.&.&.&.&.&.&.&.&.&.&.&.&.&.&.&.&.&.&.&.&.&.&.&.&.&.",
"&.&.&.&.&.&.&.&.&.R o                   6 F X.+.&.&.&.&.&.&.&.&.&.&.&.&.&.&.&.&.&.&.&.&.&.&.&.&.&.&.&.&.&.&.&.&.&.&.&.&.&.&.&.&.",
"&.&.&.&.&.&.&.&.X.r :             : i Y } #.&.&.&.&.&.&.&.&.&.&.&.&.&.&.&.&.&.&.&.&.&.&.&.&.&.&.&.&.&.&.&.&.&.&.&.&.&.&.&.&.&.&.",
"&.&.&.&.&.&.&.#.v   X X X + $ > V ~ O.$.&.&.&.&.&.&.&.&.&.&.&.&.&.&.&.&.&.&.&.&.&.&.&.&.&.&.&.&.&.&.&.&.&.&.&.&.&.&.&.&.&.&.&.&.",
"&.&.&.&.&.&.&.Z X     X - P R O.O.&.&.&.&.&.&.&.&.&.&.&.&.&.&.&.&.&.&.&.&.&.&.&.&.&.&.&.&.&.&.&.&.&.&.&.&.&.&.&.&.&.&.&.&.&.&.&.",
"&.&.&.&.&.&.Q %         a &.&.&.&.&.&.&.&.&.&.&.&.&.&.&.&.&.&.&.&.&.&.&.&.&.&.&.&.&.&.&.&.&.&.&.&.&.&.&.&.&.&.&.&.&.&.&.&.&.&.&.",
"&.&.&.&.&.X.2 X       # ~ &.&.&.&.&.&.&.&.&.&.&.&.&.&.&.&.&.&.&.&.&.&.&.&.&.&.&.&.&.&.&.&.&.&.&.&.&.&.&.&.&.&.&.&.&.&.&.&.&.&.&.",
"&.&.&.&.+.a           9 $.&.&.&.&.&.&.&.&.&.&.&.&.&.&.&.&.&.&.&.&.&.&.&.&.&.&.&.&.&.&.&.&.&.&.&.&.&.&.&.&.&.&.&.&.&.&.&.&.&.&.&.",
"&.&.&.&.M X         X J &.&.&.&.&.&.&.&.&.&.&.&.&.&.&.&.&.&.&.&.&.&.&.&.&.&.&.&.&.&.&.&.&.&.&.&.&.&.&.&.&.&.&.&.&.&.&.&.&.&.&.&.",
"&.&.&.R &           >  .&.&.&.&.&.&.&.&.&.&.&.&.&.&.&.&.&.&.&.&.&.&.&.&.&.&.&.&.&.&.&.&.&.&.&.&.&.&.&.&.&.&.&.&.&.&.&.&.&.&.&.&.",
"&.&.| ,             n &.&.&.&.&.&.&.&.&.&.&.&.&.&.&.&.&.&.&.&.&.&.&.&.&.&.&.&.&.&.&.&.&.&.&.&.&.&.&.&.&.&.&.&.&.&.&.&.&.&.&.&.&."
};
